material/.icons/material/chat-processing.svg

<svg xmlns="http://www.w3.org/2000/svg" viewBox="0 0 24 24"><path d="M12 3c5.5 0 10 3.58 10 8s-4.5 8-10 8c-1.24 0-2.43-.18-3.53-.5C5.55 21 2 21 2 21c2.33-2.33 2.7-3.9 2.75-4.5C3.05 15.07 2 13.13 2 11c0-4.42 4.5-8 10-8m5 9v-2h-2v2h2m-4 0v-2h-2v2h2m-4 0v-2H7v2h2z"/></svg>

<?xml version="1.0" encoding="UTF-8"?><!DOCTYPE svg PUBLIC "-//W3C//DTD SVG 1.1//EN" "http://www.w3.org/Graphics/SVG/1.1/DTD/svg11.dtd"><svg xmlns="http://www.w3.org/2000/svg" xmlns:xlink="http://www.w3.org/1999/xlink" version="1.1" id="mdi-chat-processing" width="24" height="24" viewBox="0 0 24 24"><path d="M12,3C17.5,3 22,6.58 22,11C22,15.42 17.5,19 12,19C10.76,19 9.57,18.82 8.47,18.5C5.55,21 2,21 2,21C4.33,18.67 4.7,17.1 4.75,16.5C3.05,15.07 2,13.13 2,11C2,6.58 6.5,3 12,3M17,12V10H15V12H17M13,12V10H11V12H13M9,12V10H7V12H9Z" /></svg>
